X: 24219
T: Lord McDonald's
R: reel
M: 4/4
K: Gmajor
G3B dG G2|cABG AGEG|DGBG dG (3Bcd|gedc BGAF|
G3B dG G2|cGBG AGEG|BGAF GEDA|DEGA BGGF||
BddB dBGB|defg aged|BddB dBGB|ABcA BG G2|
BddB dBGB|defg aged|(3Bcd ef gage|dBAc BG G2||
dgbg agbg|dgbg ageg|dgbg agbg|dedc BG G2|
dgbg agbg|dgbg ageg|bgaf gedB|dega bg g2||
BddB dBGB|defg aged|BddB d2ge|dBAc BG G2|
BddB dBGB|defg aged|(3Bcd ef gage|dBAc BG G2||

